!!!OTL: Ädjes Gretchen! (168), S. 366
!!!id: T0341
**kern
*clefG2
*k[f#]
*G:
{8g
8g
=1
8g
8g
8f#
8g
=2
4a
8d}
=3
{8a
=4
8a
8a
8g
8a
=5
4b}
=6
{8g
8b
=7
8dd
8dd
8ee
8ee
=8
8dd
8dd}
=9
{8cc
8cc
=10
8b
8g
8a
8f#
=11
4g}
==
*-
!!!minrhy: 8
!!!meters: 2/4 ]  ZZ[4
!!!cut: Ädjes Gretchen! (168), S. 366
!!!reg: Luxemburg
!!!trd: Singendes Volk, Esch-Alzette, 1937 posth.
!!!rhy1: XX  XXXX  X_X
!!!rhy2: X  XXXX  X_
!!!key: T0341  08  G 2/4 ]  ZZ[4
!!!mod: HEPTATONIK IONISCH]  AMBITUS[9
!!!kad: -5351
!!!akz: 12_23_55_31_
!!!fot: 'a__b__c__d__
!!!for: 'a__aw_aw_aw_
!!!fok: '\__/__/__\__
!! PHRAS[AUFTAKTIG]
!!!fkt: Abschieds- und Wanderlieder, Heimatlieder,  Liebeslied
!!!bem: Rammeldingen, hhh J.P. Gloden, 26.12.1932
!! THILL, Mathias:
!! PR[21] 2K[0] 2G[0] 3K[9] 3G[6] 4A[2] 4Ü[0] 5A[0] 6K[4] 6G[4]
!! 7K[0] 7G[0] 8A[0] MEHR[0] SI[26] ABS[47] SR[0] SP[26]
!! ST[18] 2k[11] 2g[30] 3k[9] 3g[0] 4d[0] 4ü[0] 5d[0] 6k[0] 6g[4]
!! 7k[0] 7g[0] 8d[0] mehr[0] si[53] dm[-27] sr[40] sp[13]
!! 1F[71] 2F[18] 3F[0] 4F[0] LF[0] 2P[12] 3P[0] 4P[0] TRI[0] DF[3] AB[51]
!! TF[0] U3K[0] U3[0] U4[0] U4Ü[0] U5[0] U6K[0] U6[0] U7K[0] U7[0]
!! N1[6] N2K[0] N2[4] N3K[0] N3[19] N4[10] N4Ü[0] N5[27] N6K[0] N6[17]
!!!n7k: 0] N7[13] O1[4] O2K[0] O2[0] O3K[0] O3[0] HÖ[0
